X:101
T:Whats Left of the Flag
S:The Session: https://thesession.org/tunes/118#setting55387
C:Flogging Molly
R:jig
K:D
M:6/8 
L:1/8
Q:1/4=120
| "D" A,D2A,D2 |FA "G"BB"D"A2|  FED2F2|ED"Bm"B,4 |
w: His eyes they closed and his last breath spoke. He had seen all to be seen.
| "D"A,DA,D FA|"G"B2B2"D"A2 | FEDD EF|"G"E2D"D"D3|
w: A life once full, now an em-pty vase. Wilt the blos-soms on his ear-ly grave.
| FA"G"B2 BB| A"D"FA2 FF |FA"Bm"BcdF|"A"A6|
w: Walk a-way me boy, walk a-way me boy. And by mor-ning we'll be free.
|FE"D"D2ED|FA"G"BB"D"A2| FFE DFF|"A"E2D"D"D3|
w: Wipe that gol-den tear from your mo-ther, dear. And reaise what's left of the flag for me.